X:8
T:Riemenbromser-Walzer G&D (tinwhistle in D)
T:wz00886 (Hanny Christen)
%%MIDI program 72   % 111 /74 / 79=whistle
R:waltz
M:3/4
L:1/4
K:G %%MIDI gchordon
"G"G/2>A/2 BG | "C"c/2>d/2ez | "D"dd!fermata!d || "G"BB>B | "D7"A^GA | "G"dd>d | d3 | \
"C"ee>e | efg |
"D7"aa>a | a3 | ff>f | edc | "G"gg>g | g2B | \
{/d}"D7"cc>c | d2A/2B/2 | ("G"G3 | G)zz |: [K:D] "D"A3 |
fed | "A"{/e}d!>!c2 | \
zcd | "G"B>^AB | zBc | "D"A>^GA | zFG | A3 | fed | ("Em"g3 | 
g)Bg | "D/A"A2d | "A7"c2e | "D"d^G/2A/2 B/2c/2 |1 dzA :|2 dzz |: [K:G] "G"Bzd | \
^czd | "C"gze | "G"d3 |
Bzd | ^czd | "D7"fec | "G"B3 | Bzd | \
^czd | gza | "(B7)"b3 | "E7"^gzb | "Am"azc' |
"D7"fza |1 "G"gzd :|2 "G"gzz || [K:D] \
"D"A2F | zA>A | A2F | zA>d | "A7"c2A | zc>e | "D"dcB |
AFG | A2F | zA>A | A2F | zA>d | "A7"c2A | zc>e | "D"dAF | Dzz |] 

